app/images/curve-high.svg

<svg width="136" height="31" viewBox="0 0 136 31" fill="none" xmlns="http://www.w3.org/2000/svg">
<path d="M91.2013 8.70469H92.2313L94.6213 14.3547L97.0213 8.70469H98.0313L95.0113 15.8047H94.2313L91.2013 8.70469ZM100.528 15.9047C100.141 15.9047 99.7878 15.838 99.4678 15.7047C99.1478 15.5714 98.8745 15.388 98.6478 15.1547C98.4212 14.9214 98.2445 14.648 98.1178 14.3347C97.9978 14.0147 97.9378 13.6714 97.9378 13.3047C97.9378 12.938 98.0012 12.598 98.1278 12.2847C98.2545 11.9647 98.4312 11.688 98.6578 11.4547C98.8912 11.2214 99.1678 11.038 99.4878 10.9047C99.8078 10.7714 100.158 10.7047 100.538 10.7047C100.864 10.7047 101.171 10.7614 101.458 10.8747C101.744 10.9814 101.994 11.1447 102.208 11.3647C102.428 11.578 102.601 11.8414 102.728 12.1547C102.854 12.4614 102.918 12.8147 102.918 13.2147C102.918 13.2614 102.918 13.3047 102.918 13.3447C102.918 13.378 102.914 13.4214 102.908 13.4747H98.8078C98.8145 13.708 98.8612 13.9247 98.9478 14.1247C99.0412 14.3247 99.1612 14.498 99.3078 14.6447C99.4612 14.7914 99.6412 14.908 99.8478 14.9947C100.061 15.0747 100.291 15.1147 100.538 15.1147C100.924 15.1147 101.241 15.038 101.488 14.8847C101.741 14.7247 101.944 14.5114 102.098 14.2447L102.778 14.7147C102.551 15.0814 102.248 15.3714 101.868 15.5847C101.494 15.798 101.048 15.9047 100.528 15.9047ZM102.038 12.7747C102.004 12.568 101.941 12.3847 101.848 12.2247C101.761 12.0647 101.648 11.928 101.508 11.8147C101.374 11.7014 101.221 11.6147 101.048 11.5547C100.874 11.4947 100.694 11.4647 100.508 11.4647C100.321 11.4647 100.138 11.4947 99.9578 11.5547C99.7778 11.6147 99.6145 11.7014 99.4678 11.8147C99.3212 11.9214 99.1945 12.058 99.0878 12.2247C98.9812 12.3847 98.9078 12.568 98.8678 12.7747H102.038ZM104.138 10.8047H104.998V11.7747C105.045 11.6147 105.118 11.4714 105.218 11.3447C105.318 11.218 105.432 11.1114 105.558 11.0247C105.685 10.938 105.818 10.8714 105.958 10.8247C106.105 10.778 106.252 10.7547 106.398 10.7547C106.532 10.7547 106.662 10.768 106.788 10.7947V11.6847C106.708 11.6514 106.632 11.6314 106.558 11.6247C106.485 11.6114 106.405 11.6047 106.318 11.6047C106.158 11.6047 105.998 11.6414 105.838 11.7147C105.685 11.7814 105.545 11.8847 105.418 12.0247C105.298 12.1647 105.198 12.3447 105.118 12.5647C105.038 12.778 104.998 13.0314 104.998 13.3247V15.8047H104.138V10.8047ZM108.17 17.8947L109.26 15.5447L107.07 10.8047H108.02L109.74 14.6047L111.45 10.8047H112.41L109.13 17.8947H108.17ZM115.457 15.8047V8.30469H116.317V11.5747C116.49 11.2747 116.717 11.0547 116.997 10.9147C117.277 10.7747 117.58 10.7047 117.907 10.7047C118.187 10.7047 118.443 10.7514 118.677 10.8447C118.91 10.938 119.107 11.0747 119.267 11.2547C119.433 11.428 119.563 11.6414 119.657 11.8947C119.75 12.1414 119.797 12.418 119.797 12.7247V15.8047H118.947V12.8547C118.947 12.4347 118.837 12.1047 118.617 11.8647C118.403 11.618 118.12 11.4947 117.767 11.4947C117.567 11.4947 117.377 11.5347 117.197 11.6147C117.023 11.6947 116.87 11.8147 116.737 11.9747C116.61 12.128 116.507 12.318 116.427 12.5447C116.353 12.7714 116.317 13.0314 116.317 13.3247V15.8047H115.457ZM121.785 9.46469C121.612 9.46469 121.465 9.40802 121.345 9.29469C121.225 9.17469 121.165 9.02802 121.165 8.85469C121.165 8.68802 121.225 8.54469 121.345 8.42469C121.465 8.30469 121.612 8.24469 121.785 8.24469C121.959 8.24469 122.102 8.30469 122.215 8.42469C122.329 8.54469 122.385 8.68802 122.385 8.85469C122.385 9.02802 122.329 9.17469 122.215 9.29469C122.102 9.40802 121.959 9.46469 121.785 9.46469ZM121.345 10.8047H122.205V15.8047H121.345V10.8047ZM126.016 14.9947C126.262 14.9947 126.489 14.9514 126.696 14.8647C126.909 14.778 127.089 14.658 127.236 14.5047C127.382 14.3447 127.496 14.158 127.576 13.9447C127.662 13.7314 127.706 13.498 127.706 13.2447C127.706 12.998 127.662 12.768 127.576 12.5547C127.496 12.3347 127.382 12.148 127.236 11.9947C127.089 11.8414 126.909 11.7214 126.696 11.6347C126.489 11.5414 126.262 11.4947 126.016 11.4947C125.762 11.4947 125.532 11.5414 125.326 11.6347C125.119 11.7214 124.942 11.8414 124.796 11.9947C124.649 12.148 124.532 12.3347 124.446 12.5547C124.366 12.768 124.326 12.998 124.326 13.2447C124.326 13.498 124.366 13.7314 124.446 13.9447C124.532 14.158 124.649 14.3447 124.796 14.5047C124.942 14.658 125.119 14.778 125.326 14.8647C125.532 14.9514 125.762 14.9947 126.016 14.9947ZM125.966 17.9947C125.426 17.9947 124.952 17.8947 124.546 17.6947C124.139 17.4947 123.829 17.2547 123.616 16.9747L124.216 16.3747C124.416 16.628 124.659 16.8314 124.946 16.9847C125.239 17.138 125.579 17.2147 125.966 17.2147C126.179 17.2147 126.386 17.1814 126.586 17.1147C126.786 17.048 126.962 16.9414 127.116 16.7947C127.276 16.6547 127.402 16.4747 127.496 16.2547C127.589 16.0414 127.636 15.7847 127.636 15.4847V14.9147C127.462 15.168 127.222 15.378 126.916 15.5447C126.609 15.7114 126.269 15.7947 125.896 15.7947C125.549 15.7947 125.226 15.7314 124.926 15.6047C124.626 15.4714 124.366 15.2914 124.146 15.0647C123.926 14.8314 123.752 14.5614 123.626 14.2547C123.506 13.9414 123.446 13.6047 123.446 13.2447C123.446 12.8914 123.506 12.5614 123.626 12.2547C123.752 11.9414 123.926 11.6714 124.146 11.4447C124.366 11.2114 124.626 11.0314 124.926 10.9047C125.226 10.7714 125.549 10.7047 125.896 10.7047C126.269 10.7047 126.609 10.788 126.916 10.9547C127.222 11.1147 127.462 11.3214 127.636 11.5747V10.8047H128.496V15.5147C128.496 15.9347 128.429 16.298 128.296 16.6047C128.169 16.918 127.992 17.1747 127.766 17.3747C127.539 17.5814 127.272 17.7347 126.966 17.8347C126.659 17.9414 126.326 17.9947 125.966 17.9947ZM130.115 15.8047V8.30469H130.975V11.5747C131.148 11.2747 131.375 11.0547 131.655 10.9147C131.935 10.7747 132.238 10.7047 132.565 10.7047C132.845 10.7047 133.102 10.7514 133.335 10.8447C133.568 10.938 133.765 11.0747 133.925 11.2547C134.092 11.428 134.222 11.6414 134.315 11.8947C134.408 12.1414 134.455 12.418 134.455 12.7247V15.8047H133.605V12.8547C133.605 12.4347 133.495 12.1047 133.275 11.8647C133.062 11.618 132.778 11.4947 132.425 11.4947C132.225 11.4947 132.035 11.5347 131.855 11.6147C131.682 11.6947 131.528 11.8147 131.395 11.9747C131.268 12.128 131.165 12.318 131.085 12.5447C131.012 12.7714 130.975 13.0314 130.975 13.3247V15.8047H130.115Z" fill="#F66A0A"/>
<path opacity="0.3" d="M19.5064 22.8047C8.74256 30.2246 0.0898438 30.8047 0.0898438 30.8047H110.34C110.34 30.8047 101.687 30.2246 90.9234 22.8047C80.1596 15.3847 67.5597 0.804688 55.2149 0.804688C42.8701 0.804688 30.2702 15.3847 19.5064 22.8047Z" fill="#037DD6"/>
<mask id="mask0_610_6323" style="mask-type:alpha" maskUnits="userSpaceOnUse" x="0" y="0" width="111" height="31">
<path d="M19.5064 22.6719C8.74256 30.0918 0.0898438 30.6719 0.0898438 30.6719H110.34C110.34 30.6719 101.687 30.0918 90.9234 22.6719C80.1596 15.2519 67.5597 0.671875 55.2149 0.671875C42.8701 0.671875 30.2702 15.2519 19.5064 22.6719Z" fill="#EAF6FF"/>
</mask>
<g mask="url(#mask0_610_6323)">
<rect x="91.9863" y="-5.14258" width="20.7061" height="39.25" fill="#F66A0A" stroke="white" stroke-width="2"/>
</g>
</svg>

<svg width="136" height="31" fill="none" xmlns="http://www.w3.org/2000/svg"><path d="M91.201 8.705h1.03l2.39 5.65 2.4-5.65h1.01l-3.02 7.1h-.78l-3.03-7.1Zm9.327 7.2a2.73 2.73 0 0 1-1.06-.2 2.431 2.431 0 0 1-1.35-1.37 2.91 2.91 0 0 1-.18-1.03c0-.367.063-.707.19-1.02.126-.32.303-.597.53-.83.233-.234.51-.417.83-.55.32-.134.67-.2 1.05-.2.326 0 .633.056.92.17.286.106.536.27.75.49.22.213.393.476.52.79.126.306.19.66.19 1.06v.13c0 .033-.004.076-.01.13h-4.1c.006.233.053.45.14.65.093.2.213.373.36.52.153.146.333.263.54.35.213.08.443.12.69.12.386 0 .703-.077.95-.23a1.82 1.82 0 0 0 .61-.64l.68.47a2.48 2.48 0 0 1-.91.87c-.374.213-.82.32-1.34.32Zm1.51-3.13a1.601 1.601 0 0 0-.19-.55c-.087-.16-.2-.297-.34-.41a1.431 1.431 0 0 0-.46-.26 1.645 1.645 0 0 0-.54-.09 1.73 1.73 0 0 0-1.04.35 1.5 1.5 0 0 0-.38.41c-.107.16-.18.343-.22.55h3.17Zm2.1-1.97h.86v.97c.047-.16.12-.304.22-.43a1.556 1.556 0 0 1 .74-.52c.147-.047.294-.07.44-.07.134 0 .264.013.39.04v.89a.78.78 0 0 0-.23-.06 1.342 1.342 0 0 0-.24-.02c-.16 0-.32.036-.48.11-.153.066-.293.17-.42.31-.12.14-.22.32-.3.54-.08.213-.12.466-.12.76v2.48h-.86v-5Zm4.032 7.09 1.09-2.35-2.19-4.74h.95l1.72 3.8 1.71-3.8h.96l-3.28 7.09h-.96Zm7.287-2.09v-7.5h.86v3.27c.173-.3.4-.52.68-.66s.583-.21.91-.21c.28 0 .536.046.77.14.233.093.43.23.59.41.166.173.296.386.39.64.093.246.14.523.14.83v3.08h-.85v-2.95c0-.42-.11-.75-.33-.99-.214-.247-.497-.37-.85-.37-.2 0-.39.04-.57.12-.174.08-.327.2-.46.36-.127.153-.23.343-.31.57-.074.226-.11.486-.11.78v2.48h-.86Zm6.328-6.34a.599.599 0 0 1-.62-.61c0-.167.06-.31.18-.43s.267-.18.44-.18a.602.602 0 0 1 .6.61c0 .173-.056.32-.17.44a.581.581 0 0 1-.43.17Zm-.44 1.34h.86v5h-.86v-5Zm4.671 4.19c.246 0 .473-.044.68-.13.213-.087.393-.207.54-.36.146-.16.26-.347.34-.56.086-.214.13-.447.13-.7 0-.247-.044-.477-.13-.69a1.588 1.588 0 0 0-.34-.56 1.542 1.542 0 0 0-.54-.36 1.637 1.637 0 0 0-.68-.14c-.254 0-.484.046-.69.14a1.548 1.548 0 0 0-.53.36c-.147.153-.264.34-.35.56-.08.213-.12.443-.12.69 0 .253.04.486.12.7.086.213.203.4.35.56.146.153.323.273.53.36.206.086.436.13.69.13Zm-.05 3c-.54 0-1.014-.1-1.42-.3-.407-.2-.717-.44-.93-.72l.6-.6c.2.253.443.456.73.61.293.153.633.23 1.02.23.213 0 .42-.034.62-.1.2-.067.376-.174.53-.32.16-.14.286-.32.38-.54.093-.214.14-.47.14-.77v-.57a2.032 2.032 0 0 1-.72.63c-.307.166-.647.25-1.02.25-.347 0-.67-.064-.97-.19-.3-.134-.56-.314-.78-.54a2.623 2.623 0 0 1-.52-.81 2.8 2.8 0 0 1-.18-1.01c0-.354.06-.684.18-.99.126-.314.3-.584.52-.81.22-.234.48-.414.78-.54.3-.134.623-.2.97-.2.373 0 .713.083 1.02.25.306.16.546.366.72.62v-.77h.86v4.71c0 .42-.067.783-.2 1.09-.127.313-.304.57-.53.77-.227.206-.494.36-.8.46-.307.106-.64.16-1 .16Zm4.149-2.19v-7.5h.86v3.27c.173-.3.4-.52.68-.66s.583-.21.91-.21c.28 0 .537.046.77.14.233.093.43.23.59.41.167.173.297.386.39.64.093.246.14.523.14.83v3.08h-.85v-2.95c0-.42-.11-.75-.33-.99-.213-.247-.497-.37-.85-.37-.2 0-.39.04-.57.12-.173.08-.327.2-.46.36-.127.153-.23.343-.31.57-.073.226-.11.486-.11.78v2.48h-.86Z" fill="#F66A0A"/><path opacity=".3" d="M19.506 22.805c-10.763 7.42-19.416 8-19.416 8h110.25s-8.653-.58-19.417-8c-10.763-7.42-23.363-22-35.708-22-12.345 0-24.945 14.58-35.709 22Z" fill="#037DD6"/><mask id="a" style="mask-type:alpha" maskUnits="userSpaceOnUse" x="0" y="0" width="111" height="31"><path d="M19.506 22.672c-10.763 7.42-19.416 8-19.416 8h110.25s-8.653-.58-19.417-8c-10.763-7.42-23.363-22-35.708-22-12.345 0-24.945 14.58-35.709 22Z" fill="#EAF6FF"/></mask><g mask="url(#a)"><path fill="#F66A0A" stroke="#fff" stroke-width="2" d="M91.986-5.143h20.706v39.25H91.986z"/></g></svg>
